X:1
T:Who Is He in Yonder Stall?
T:Who Is He in Yonder Stall?
T:Benjamin Russell Hanby
T:Benjamin Russell Hanby, 1866 
T:Public Domain Courtesy of the Cyber Hymnal™
C:Benjamin Russell Hanby
Z:Public Domain
Z:Courtesy of the Cyber Hymnal™
%%score ( 1 2 ) ( 3 4 )
L:1/8
Q:1/4=105
M:3/4
K:Ab
V:1 treble 
V:2 treble 
V:3 bass 
V:4 bass 
V:1
 [CE][CE] | [CE]3 [CE] E[CE] | [DF]4 [DF][DF] | [CE]3 [CE] [=DA][DA] | [EB]4 [CE][CE] | %5
w: 1.~Who is|He in yon- der|stall At Whose|feet the shep- herds|fall? Who is|
w: 2.~Who is|He the peo- ple|bless For His|words of gen- tle-|ness? Who is|
w: 3.~Who is|He that stands and|weeps At the|grave where Laz- arus|sleeps? Who is|
w: 4.~Lo! at|mid- night, who is|He Prays in|dark Geth- sem- a-|ne? Who is|
w: 5.~Who is|He that from the|grave Comes to|heal and help and|save? Who is|
 [CE]3 [CE] E[CE] | [DF]4 [DF][DF] | [CE]3 [CE] [=DA][DA] | B4 ||"^Refrain" [CA][EB] | %10
w: He in deep dis-|tress, Fast- ing|in the wil- der-|ness?||
w: He to Whom they|bring All the|sick and sor- row-|ing?||
w: He the gath- ering|throng Greet with|loud tri- umph- ant|song?||
w: He on yon- der|tree Dies in|grief and a- go-|ny?||
w: He that from His|throne Rules through|all the world a-|lone?||
 [Ec]3 [Ec] [Fd][Ec] | [Ec]2 [EB]2 [EG][EA] | [EB]3 [EB] [Ec][EB] | [DB]2 [CA]2 [CA][CA] | %14
w: ||||
w: ||||
w: ||||
w: ||||
w: ||||
 [EA]3 [CA] [EA]E | [DF]4 [FA][FB] | [Ec]3 [Ec] [EB][DB] | [CA]4 |] %18
w: ||||
w: ||||
w: ||||
w: ||||
w: ||||
V:2
 x2 | x4 E x | x6 | x6 | x6 | x4 E x | x6 | x6 | (E2 D2) || x2 | x6 | x6 | x6 | x6 | x5 E | x6 | %16
 x6 | x4 |] %18
V:3
 [A,,A,][A,,A,] | [A,,A,]3 [A,,A,] [C,A,][A,,A,] | [D,A,]4 [D,A,][D,A,] | %3
w: ~ ~|~ ~ ~ ~|~ ~ ~|
 [E,A,]3 [E,A,] [F,A,][F,A,] | [E,G,]4 [A,,A,][A,,A,] | [A,,A,]3 [A,,A,] [C,A,][A,,A,] | %6
w: ~ ~ ~ ~|~ ~ ~|~ ~ ~ ~|
 [D,A,]4 [D,A,][D,A,] | [E,A,]3 [E,A,] [F,A,][F,A,] | (A,2 G,2) || [F,A,][E,G,] | %10
w: ~ ~ ~|~ ~ ~ ~|~ *|’Tis the|
 A,3 [A,,A,] [A,,A,][A,,A,] | [E,A,]2 [E,G,]2 [E,B,][E,A,] | [E,G,]3 [E,G,] [E,F,][E,G,] | %13
w: Lord! O won- drous|sto- ry! ’Tis the|Lord! the King of|
 [A,,G,]2 [A,,A,]2 [A,,E,][A,,E,] | [C,A,]3 [A,,A,] [C,A,][C,A,] | [D,A,]4 [D,A,][D,A,] | %16
w: glo- ry! At His|feet we hum- bly|fall, Crown Him!|
 [E,A,]3 [E,A,] [E,A,][E,G,] | [A,,A,]4 |] %18
w: crown Him, Lord of|all!|
V:4
 x2 | x6 | x6 | x6 | x6 | x6 | x6 | x6 | E,4 || x2 | A,3 x3 | x6 | x6 | x6 | x6 | x6 | x6 | x4 |] %18

